X:7
T:Chester
Z:Jack Campin  *  May 2000  *  http://www.campin.me.uk/
N:truncated version of the mid-C18 Scottish tune "The Blossom
N:of the Raspberry", also known as "Miss Hamilton's Delight".
M:4/4
L:1/4
K:G
"2nd time: cut time (2/4)"
d2 ef|g2 e2|egfe|d4|d2 dd|de       d/c/B|cBAG|A4 |
d2 ee|d2 ef|gdef|g4|g>fed|e/d/c/B/ Ad   |GcBA|G4:|

